X: 1
T: The Dark Isle
C: arr Russ Spaulding
S: Slow Air
M: 6/8
L: 1/8
K: HP
{g}A3/4B/4|
{gef}e2{g}A/4e3/4{Gdc}d2{g}e3/4d/4|
{gBd}B3/2{e}A/2{d}G{g}A2{Gdc}d3/4e/4|  !
{g}f3/2e/2{g}d{g}f/2a3/2{AGAG}A|
{g}f3/2{g}f/2a3/4f/4{gef}e2{g}A3/4B/4|
{gef}e2{g}A/4e3/4{Gdc}d2{g}e3/4d/4|  !
{gBd}B3/2{e}A/2{d}G{g}A2{Gdc}d3/4e/4|
{g}f3/2A/2a3/4f/4{g}e3/2A/2{g}f3/4e/4|
{Gdc}d3{gdG}d2:|  !
{g}f3/4g/4|
a2{AGAG}A{g}f3/2e/2d|
{g}B/2{d}G3/2{d}B{G}A2{Gdc}d3/4e/4|  !
{g}f3/2e/2{g}d{g}f/2a3/2{AGAG}A|
{g}f3/2{g}f/2a3/4f/4{gef}e2{g}A3/4B/4|
{gef}e2{g}A/4e3/4{Gdc}d2{g}e3/4d/4|  !
{gBd}B3/2{e}A/2{d}G{g}A2{Gdc}d3/4e/4|
{g}f3/2A/2a3/4f/4{g}e3/2A/2{g}f3/4e/4|
{Gdc}d3{gdG}d2:|  !
